icons/mobile/24/svg/newsfeed-24.svg

<svg width="24" height="24" viewBox="0 0 24 24" fill="none" xmlns="http://www.w3.org/2000/svg">
<path d="M16.625 15C17.108 15 17.5 15.392 17.5 15.875C17.5 16.358 17.108 16.75 16.625 16.75H7.375C6.892 16.75 6.5 16.358 6.5 15.875C6.5 15.392 6.892 15 7.375 15H16.625Z" fill="black"/>
<path d="M9.75 7.25C10.4404 7.25 11 7.80964 11 8.5V11.625C11 12.3154 10.4404 12.875 9.75 12.875H7.75C7.05964 12.875 6.5 12.3154 6.5 11.625V8.5C6.5 7.80964 7.05964 7.25 7.75 7.25H9.75Z" fill="black"/>
<path d="M16.625 11.125C17.108 11.125 17.5 11.517 17.5 12C17.5 12.483 17.108 12.875 16.625 12.875H13.375C12.892 12.875 12.5 12.483 12.5 12C12.5 11.517 12.892 11.125 13.375 11.125H16.625Z" fill="black"/>
<path d="M16.625 7.25C17.108 7.25 17.5 7.642 17.5 8.125C17.5 8.608 17.108 9 16.625 9H13.375C12.892 9 12.5 8.608 12.5 8.125C12.5 7.642 12.892 7.25 13.375 7.25H16.625Z" fill="black"/>
<path fill-rule="evenodd" clip-rule="evenodd" d="M12 3C13.8222 3 15.9503 3.11003 18.3047 3.44141C19.8461 3.65804 21 4.98331 21 6.54102V17.4619C21 18.9989 19.8809 20.3359 18.3359 20.5547C16.4697 20.8188 14.3422 21 12 21C10.1778 21 8.04975 20.89 5.69531 20.5586C4.15386 20.342 3 19.0167 3 17.459V6.53809C3 5.00109 4.11905 3.66415 5.66406 3.44531C7.53032 3.18118 9.65779 3 12 3ZM12 4.75C9.74821 4.75 7.70292 4.92484 5.90918 5.17871C5.25057 5.2722 4.75 5.84934 4.75 6.53809V17.459C4.75 18.1432 5.26009 18.7297 5.93848 18.8252C8.20193 19.1438 10.2483 19.25 12 19.25C14.2518 19.25 16.2971 19.0752 18.0908 18.8213C18.7494 18.7278 19.25 18.1507 19.25 17.4619V6.54102C19.25 5.85684 18.7399 5.27032 18.0615 5.1748C15.7981 4.85622 13.7517 4.75 12 4.75Z" fill="black"/>
</svg>

<!-- This Source Code Form is subject to the terms of the Mozilla Public
   - License, v. 2.0. If a copy of the MPL was not distributed with this
   - file, You can obtain one at http://mozilla.org/MPL/2.0/. -->
<svg xmlns="http://www.w3.org/2000/svg" width="24" height="24" fill="none" viewBox="0 0 24 24">
    <path fill="#000" d="M16.625 15a.875.875 0 0 1 0 1.75h-9.25a.875.875 0 0 1 0-1.75zM9.75 7.25c.69 0 1.25.56 1.25 1.25v3.125c0 .69-.56 1.25-1.25 1.25h-2c-.69 0-1.25-.56-1.25-1.25V8.5c0-.69.56-1.25 1.25-1.25zm6.875 3.875a.875.875 0 0 1 0 1.75h-3.25a.875.875 0 0 1 0-1.75zm0-3.875a.875.875 0 0 1 0 1.75h-3.25a.875.875 0 0 1 0-1.75z" />
    <path fill="#000" fill-rule="evenodd" d="M12 3c1.822 0 3.95.11 6.305.441A3.136 3.136 0 0 1 21 6.541v10.92c0 1.538-1.12 2.875-2.664 3.094a45.2 45.2 0 0 1-12.64.004A3.136 3.136 0 0 1 3 17.459V6.539C3 5 4.119 3.663 5.664 3.444A45 45 0 0 1 12 3m0 1.75a43.5 43.5 0 0 0-6.09.429c-.66.093-1.16.67-1.16 1.36v10.92c0 .684.51 1.27 1.188 1.366a43.5 43.5 0 0 0 12.153-.004 1.365 1.365 0 0 0 1.159-1.36V6.542c0-.684-.51-1.27-1.189-1.366A43.5 43.5 0 0 0 12 4.75" clip-rule="evenodd" />
</svg>
